svg/bluesky.svg

<svg xmlns="http://www.w3.org/2000/svg" width="24" height="24" viewBox="0 0 24 24">
	<g fill="none" stroke="currentColor" stroke-width="2" stroke-linecap="round" stroke-linejoin="round">
		<path d="M 7.468 5.942 C 9.302 7.312 11.275 10.086 12 11.575 C 12.725 10.086 14.697 7.311 16.531 5.942 C 17.856 4.954 20 4.191 20 6.621 C 20 7.107 19.72 10.7 19.555 11.283 C 18.984 13.312 16.903 13.831 15.052 13.517 C 18.288 14.063 19.11 15.876 17.334 17.69 C 13.958 21.132 12.481 16.825 12.102 15.722 C 12.032 15.519 12.001 15.425 12 15.504 C 11.999 15.425 11.967 15.519 11.898 15.722 C 11.52 16.825 10.043 21.133 6.666 17.69 C 4.889 15.876 5.711 14.063 8.948 13.517 C 7.098 13.831 5.015 13.312 4.445 11.283 C 4.28 10.7 4 7.107 4 6.621 C 4 4.191 6.144 4.954 7.468 5.942 Z" stroke-dasharray="72" stroke-dashoffset="72">
			<animate attributeName="stroke-dashoffset" values="72;0" dur="0.675s" fill="freeze" />
		</path>
	</g>
</svg>

<svg xmlns="http://www.w3.org/2000/svg" width="24" height="24" viewBox="0 0 24 24">
	<path d="M7.47 5.94c1.83 1.37 3.81 4.14 4.53 5.63c0.72 -1.49 2.7 -4.26 4.53 -5.63c1.33 -0.99 3.47 -1.75 3.47 0.68c0 0.49 -0.28 4.08 -0.45 4.66c-0.57 2.03 -2.65 2.55 -4.5 2.23c3.24 0.55 4.06 2.36 2.28 4.17c-3.38 3.44 -4.85 -0.87 -5.23 -1.97c-0.07 -0.2 -0.1 -0.3 -0.1 -0.22c-0 -0.08 -0.03 0.02 -0.1 0.22c-0.38 1.1 -1.86 5.41 -5.23 1.97c-1.78 -1.81 -0.96 -3.63 2.28 -4.17c-1.85 0.31 -3.93 -0.21 -4.5 -2.23c-0.17 -0.58 -0.45 -4.18 -0.45 -4.66c0 -2.43 2.14 -1.67 3.47 -0.68Z" fill="none" stroke="currentColor" stroke-width="2" stroke-dasharray="80" stroke-dashoffset="80" stroke-linecap="round" stroke-linejoin="round">
		<animate attributeName="stroke-dashoffset" values="80;0" dur="0.6s" fill="freeze" />
	</path>
</svg>
